X: 21797
T: King's, The
R: reel
M: 4/4
K: Adorian
|:A2 eA fAeA|A2 eA cAAe|A2 eA fAef|g2 dc BGGB:|
cAeA aAeA|cAeA cAAe|cAeA aAef|gedc BGGe|
cAeA aAeA|cAeA cAAe|d2 Bd c2 Ac|Bgdg BGGB|

